svg/u2620.svg

<svg viewBox="0 0 128 128" xmlns="http://www.w3.org/2000/svg">
  <g>
    <g>
      <path d="M15.56,120.59c-0.23-0.41-0.47-0.81-0.63-1.23c-0.8-2.03-0.88-3.53-2.9-4.37 c-1.02-0.43-3.26-1.08-4.32-1.4c-1.89-0.56-3.45-2.14-3.97-4.05s0.02-4.06,1.37-5.5c2.08-2.22,5.44-2.46,8.46-2.8 c8.25-0.95,14.29-9.69,19.8-15.2c3.66-3.66,7.32-7.32,10.98-10.98c0,0,8.64,8.64,8.64,8.64c0,0-10.02,10.02-10.62,10.62 c-5.5,5.5-15.01,11.69-14.73,20.3c0.05,1.61,0.39,3.27-0.12,4.8c-0.69,2.08-2.79,3.37-4.86,4.1c-1.08,0.38-2.25,0.66-3.37,0.42 C17.6,123.57,16.44,122.15,15.56,120.59z" fill="#C8DEE9"/>
      <path d="M14.44,110.53c2.17,0.23,2.32,2.93,1.78,5.36c-0.19,0.85-0.64,1.76-1.37,2.08 c-0.67,0.29-0.75-1.57-2.2-2.61c-0.47-0.34-4.15-1.04-6.35-2.39c-0.62-0.38-0.48-1.31,0.24-1.46 C8.96,111.01,13.47,110.42,14.44,110.53z" fill="#8ABFD1"/>
      <g>
        <path d="M25.85,94.04C25.85,94.04,25.85,94.05,25.85,94.04c0.24-0.24,2.95-0.08,4.09,1.94 c0.74,1.31,1.1,2.85,0.92,4.32c-0.25,2.01-1.14,3.87-1.95,5.71c-1.67,3.79-1.15,6.16-1.11,6.31 c1.26-7.44,9.58-13.01,14.58-18.01c0.61-0.61,10.62-10.62,10.62-10.62c0,0-9.4-8.81-9.4-8.81 C42.24,76.25,27.28,92.62,25.85,94.04z" fill="#8ABFD1"/>
        <path d="M27.42,90.67c-0.05,0.05-0.1,0.11-0.15,0.16l-0.04,0.13C27.29,90.86,27.36,90.77,27.42,90.67z" fill="#A5C7D3"/>
      </g>
    </g>
    <g>
      <g>
        <path d="M112.44,120.59c0.23-0.41,0.44-0.82,0.63-1.23c0.94-1.98,1.97-4.17,3.99-5.02 c1.02-0.43,2.17-0.43,3.23-0.75c1.89-0.56,3.45-2.14,3.97-4.05s-0.02-4.06-1.37-5.5c-2.08-2.22-5.44-2.46-8.46-2.8 c-8.25-0.95-14.29-9.69-19.8-15.2c-3.66-3.66-7.32-7.32-10.98-10.98c0,0-8.64,8.64-8.64,8.64c0,0,10.02,10.02,10.62,10.62 c5.5,5.5,15.01,11.69,14.73,20.3c-0.05,1.61-0.39,3.27,0.12,4.8c0.69,2.08,2.79,3.37,4.86,4.1c1.08,0.38,2.25,0.66,3.37,0.42 C110.4,123.57,111.56,122.15,112.44,120.59z" fill="#C8DEE9"/>
        <g>
          <path d="M102.15,94.04C102.15,94.04,102.15,94.05,102.15,94.04c-0.24-0.24-2.95-0.08-4.09,1.94 c-0.74,1.31-1.1,2.85-0.92,4.32c0.25,2.01,1.14,3.87,1.95,5.71c1.67,3.79,1.15,6.16,1.11,6.31 c-1.26-7.44-9.58-13.01-14.58-18.01C85.02,93.72,75.01,83.7,75.01,83.7c0,0,9.4-8.81,9.4-8.81 C85.76,76.25,100.72,92.62,102.15,94.04z" fill="#8ABFD1"/>
          <path d="M100.58,90.67c0.05,0.05,0.1,0.11,0.15,0.16l0.04,0.13C100.71,90.86,100.64,90.77,100.58,90.67z" fill="#A5C7D3"/>
        </g>
      </g>
      <path d="M113.72,110.53c-2.17,0.23-2.32,2.93-1.78,5.36c0.19,0.85,0.64,1.76,1.37,2.08 c0.67,0.29,0.75-1.57,2.2-2.61c0.47-0.34,4.15-1.04,6.35-2.39c0.62-0.38,0.48-1.31-0.24-1.46 C119.2,111.01,114.69,110.42,113.72,110.53z" fill="#8ABFD1"/>
    </g>
    <g>
      <g>
        <path d="M15.56,7.41c-0.23,0.41-0.44,0.82-0.63,1.23c-0.94,1.98-1.97,4.17-3.99,5.02 c-1.02,0.43-2.17,0.43-3.23,0.75c-1.89,0.56-3.45,2.14-3.97,4.05c-0.52,1.9,0.02,4.06,1.37,5.5c2.08,2.22,5.44,2.46,8.46,2.8 c8.25,0.95,14.29,9.69,19.8,15.2c3.66,3.66,7.32,7.32,10.98,10.98c0,0,8.64-8.64,8.64-8.64c0,0-10.02-10.02-10.62-10.62 c-5.5-5.5-15.01-11.69-14.73-20.3c0.05-1.61,0.39-3.27-0.12-4.8c-0.69-2.08-2.79-3.37-4.86-4.1c-1.08-0.38-2.25-0.66-3.37-0.42 C17.6,4.43,16.44,5.85,15.56,7.41z" fill="#C8DEE9"/>
        <path d="M27.42,37.33c-0.05-0.05-0.1-0.11-0.15-0.16l-0.04-0.13C27.29,37.14,27.36,37.23,27.42,37.33z" fill="#A5C7D3"/>
      </g>
      <path d="M7.89,22.54c4.93,0.1,6.15-0.75,7.42-1.21c4.08-1.46,5.17,1.25,4.03,3.41 c-1.4,2.66-7.05,2.52-11.22,1.02c-0.89-0.32-3.2-1.35-3.48-2.44C4.2,21.61,7.18,22.52,7.89,22.54z" fill="#8ABFD1"/>
      <path d="M52.99,44.3c0,0-14.09-13.23-17.09-16.45c-6.07,0.61-9.36,4.44-9.87,6.36 c3.22,2.99,14.66,15.07,18.32,18.73C44.35,52.94,52.99,44.3,52.99,44.3z" fill="#8ABFD1"/>
    </g>
    <g>
      <g>
        <path d="M112.44,7.41c0.23,0.41,0.44,0.82,0.63,1.23c0.94,1.98,1.97,4.17,3.99,5.02 c1.02,0.43,2.17,0.43,3.23,0.75c1.89,0.56,3.45,2.14,3.97,4.05c0.52,1.9-0.02,4.06-1.37,5.5c-2.08,2.22-5.44,2.46-8.46,2.8 c-8.25,0.95-14.29,9.69-19.8,15.2c-3.66,3.66-7.32,7.32-10.98,10.98c0,0-8.64-8.64-8.64-8.64c0,0,10.02-10.02,10.62-10.62 c5.5-5.5,15.01-11.69,14.73-20.3c-0.05-1.61-0.39-3.27,0.12-4.8c0.69-2.08,2.79-3.37,4.86-4.1c1.08-0.38,2.25-0.66,3.37-0.42 C110.4,4.43,111.56,5.85,112.44,7.41z" fill="#C8DEE9"/>
        <path d="M100.58,37.33c0.05-0.05,0.1-0.11,0.15-0.16l0.04-0.13C100.71,37.14,100.64,37.23,100.58,37.33z" fill="#A5C7D3"/>
      </g>
      <path d="M120.11,22.43c-4.93,0.1-6.15-0.75-7.42-1.21c-4.08-1.46-5.17,1.25-4.03,3.41 c1.4,2.66,7.05,2.52,11.22,1.02c0.89-0.32,3.2-1.35,3.48-2.44C123.8,21.51,120.82,22.42,120.11,22.43z" fill="#8ABFD1"/>
      <path d="M75.01,44.3c0,0,15.35-14.36,18.35-17.58c8.01,1.74,9.4,6.63,9.4,6.63s-15.44,15.92-19.1,19.58 C83.65,52.94,75.01,44.3,75.01,44.3z" fill="#8ABFD1"/>
    </g>
    <g>
      <g>
        <path d="M99.71,68.48c0.42-2.53,2.17-13.78,0.58-22.62c-1.02-5.63-3.78-9.99-7.71-13.71 c-7.57-7.17-17.88-10.53-27.73-10.82c-0.05-0.01-0.11-0.01-0.16-0.01c-0.05,0-0.11-0.01-0.16-0.01c-0.09,0-0.18,0.01-0.26,0.01 c-0.09,0-0.18-0.01-0.26-0.01c-0.05,0-0.11,0.01-0.16,0.01c-0.05,0-0.11-0.01-0.16,0.01c-9.85,0.29-20.16,3.65-27.73,10.82 c-3.92,3.72-6.69,8.08-7.71,13.71c-1.6,8.84,0.16,20.09,0.58,22.62c0.57,3.45-0.94,7.26-1.24,10.7c-0.32,3.74,1.44,6.64,4.6,8.69 c2.64,1.71,5.7,2.62,8.55,3.95c3.39,1.58,0.31,7.28,1.56,10.16c0.63,1.46,2.01,2.45,3.43,3.16c1.81,0.9,3.9,1.47,5.86,0.97 c-0.3,0.08,0.56,1.8,1.7,2.5c1.03,0.64,2.32,1.29,3.51,1.55c2.38,0.52,4.73-0.35,6.19-1.11c0.8-0.41,1.74-0.41,2.53,0 c1.47,0.76,3.82,1.64,6.19,1.11c1.79-0.39,3.38-1.45,4.52-2.84c0.53-0.65,1.36-1.01,2.2-0.95c2.49,0.16,6.3-0.85,7.96-4.61 c0.92-2.09-0.01-4.55,0.61-6.74c1.04-3.71,4.69-4.63,7.63-6.35c3.89-2.29,6.19-4.84,6.3-8.45 C101.08,76.38,99.22,71.44,99.71,68.48z" fill="#E1E7EA"/>
        <g>
          <ellipse cx="46.45" cy="66.1" fill="#424242" rx="10.13" ry="9.21" transform="matrix(0.2588 -0.9659 0.9659 0.2588 -29.4163 93.857)"/>
          <ellipse cx="82.1" cy="66.1" fill="#424242" rx="9.21" ry="10.13" transform="matrix(0.9659 -0.2588 0.2588 0.9659 -14.3095 23.5018)"/>
        </g>
        <path d="M58.36,82.72c0-3.27,2.65-11.36,5.92-11.36c3.27,0,5.92,8.09,5.92,11.36 c0,6.64-5.92,2.12-5.92,2.12S58.36,89.75,58.36,82.72z" fill="#424242"/>
        <g>
          <path d="M49.91,106.3c-0.08-0.67,0.09-7.49,0.09-8.7c0-0.86,0.69-1.55,1.55-1.55 c0.86,0,1.55,0.7,1.55,1.55c0,1.07-0.42,8.73-0.42,8.73S51.28,106.69,49.91,106.3z" fill="#8ABFD1"/>
          <path d="M62.74,109.27c0,0,0.01-1.05,0.01-1.59c0-3.36,0-6.72,0-10.08c0-0.86,0.69-1.55,1.55-1.55 c0.86,0,1.55,0.7,1.55,1.55c0,0.05,0,0.11,0,0.16c0,1.77,0,3.53,0,5.3c0,1.11-0.06,6.21-0.06,6.21 C63.39,108.37,62.74,109.27,62.74,109.27z" fill="#8ABFD1"/>
          <path d="M75.7,107.18c0,0-0.15-8.28-0.15-9.58c0-0.86,0.7-1.55,1.55-1.55c0.86,0,1.55,0.7,1.55,1.55 c0,1.39-0.01,8.78-0.01,8.78s-0.82-0.04-1.45,0.07C76.92,106.48,75.7,107.18,75.7,107.18z" fill="#8ABFD1"/>
        </g>
      </g>
      <path d="M64.27,105.37c-0.76,0.06-1.52,0.15-1.53,0.24c-0.23,2.63-4.05,2.8-6,2.38 c-1.13-0.25-2.4-0.63-3.09-1.6c-0.65-0.9-0.94-2.04-0.93-3.14c0-0.06-2.82-0.36-2.82-0.36s-0.19,1.55-2.1,1.4 c-3.14-0.25-3.76-1.26-4.43-2.37c-0.84-1.4-1.14-4.5-1.14-4.5c-1.32,5.58,1.48,7.64,2.87,8.4c2.6,1.42,5.88,0.67,5.88,0.67 s1.31,2.09,2.44,2.79c1.03,0.64,2.12,0.96,3.31,1.22c2.38,0.52,4.73-0.35,6.19-1.11c0.42-0.22,0.88-0.31,1.33-0.3V105.37z" fill="#8ABFD1"/>
      <path d="M64.27,105.37c0.76,0.06,1.52,0.15,1.53,0.24c0.23,2.63,4.05,2.8,6,2.38 c1.13-0.25,2.4-0.63,3.09-1.6c0.65-0.9,0.94-2.04,0.93-3.14c0-0.06,2.82-0.36,2.82-0.36s0.19,1.55,2.1,1.4 c3.14-0.25,3.76-1.26,4.43-2.37c0.84-1.4,1.64-4.5,1.64-4.5c0.94,5.69-1.98,7.64-3.37,8.4c-2.6,1.42-5.88,0.67-5.88,0.67 s-1.31,2.09-2.44,2.79c-1.03,0.64-2.12,0.96-3.31,1.22c-2.38,0.52-4.73-0.35-6.19-1.11c-0.42-0.22-0.88-0.31-1.33-0.3V105.37z" fill="#8ABFD1"/>
    </g>
  </g>
</svg>

<svg viewBox="0 0 128 128" xmlns="http://www.w3.org/2000/svg">
  <defs/>
  <path d="M15.56,120.59 C15.33,120.18 15.09,119.78 14.93,119.36 C14.13,117.33 14.05,115.83 12.03,114.99 C11.01,114.56 8.77,113.91 7.71,113.59 C5.82,113.03 4.26,111.45 3.74,109.54 C3.22,107.63 3.76,105.48 5.11,104.04 C7.19,101.82 10.55,101.58 13.57,101.24 C21.82,100.29 27.86,91.55 33.37,86.04 C37.03,82.38 40.69,78.72 44.35,75.06 C44.35,75.06 52.99,83.7 52.99,83.7 C52.99,83.7 42.97,93.72 42.37,94.32 C36.87,99.82 27.36,106.01 27.64,114.62 C27.69,116.23 28.03,117.89 27.52,119.42 C26.83,121.5 24.73,122.79 22.66,123.52 C21.58,123.9 20.41,124.18 19.29,123.94 C17.6,123.57 16.44,122.15 15.56,120.59 Z" fill="#C8DEE9"/>
  <path d="M14.44,110.53 C16.61,110.76 16.76,113.46 16.22,115.89 C16.03,116.74 15.58,117.65 14.85,117.97 C14.18,118.26 14.1,116.4 12.65,115.36 C12.18,115.02 8.5,114.32 6.3,112.97 C5.68,112.59 5.82,111.66 6.54,111.51 C8.96,111.01 13.47,110.42 14.44,110.53 Z" fill="#8ABFD1"/>
  <path d="M25.85,94.04 C25.85,94.04 25.85,94.05 25.85,94.04 C26.09,93.8 28.8,93.96 29.94,95.98 C30.68,97.29 31.04,98.83 30.86,100.3 C30.61,102.31 29.72,104.17 28.91,106.01 C27.24,109.8 27.76,112.17 27.8,112.32 C29.06,104.88 37.38,99.31 42.38,94.31 C42.99,93.7 53,83.69 53,83.69 C53,83.69 43.6,74.88 43.6,74.88 C42.24,76.25 27.28,92.62 25.85,94.04 Z" fill="#8ABFD1"/>
  <path d="M27.42,90.67 C27.37,90.72 27.32,90.78 27.27,90.83 L27.23,90.96 C27.29,90.86 27.36,90.77 27.42,90.67 Z" fill="#A5C7D3"/>
  <path d="M112.44,120.59 C112.67,120.18 112.88,119.77 113.07,119.36 C114.01,117.38 115.04,115.19 117.06,114.34 C118.08,113.91 119.23,113.91 120.29,113.59 C122.18,113.03 123.74,111.45 124.26,109.54 C124.78,107.63 124.24,105.48 122.89,104.04 C120.81,101.82 117.45,101.58 114.43,101.24 C106.18,100.29 100.14,91.55 94.63,86.04 C90.97,82.38 87.31,78.72 83.65,75.06 C83.65,75.06 75.01,83.7 75.01,83.7 C75.01,83.7 85.03,93.72 85.63,94.32 C91.13,99.82 100.64,106.01 100.36,114.62 C100.31,116.23 99.97,117.89 100.48,119.42 C101.17,121.5 103.27,122.79 105.34,123.52 C106.42,123.9 107.59,124.18 108.71,123.94 C110.4,123.57 111.56,122.15 112.44,120.59 Z" fill="#C8DEE9"/>
  <path d="M102.15,94.04 C102.15,94.04 102.15,94.05 102.15,94.04 C101.91,93.8 99.2,93.96 98.06,95.98 C97.32,97.29 96.96,98.83 97.14,100.3 C97.39,102.31 98.28,104.17 99.09,106.01 C100.76,109.8 100.24,112.17 100.2,112.32 C98.94,104.88 90.62,99.31 85.62,94.31 C85.02,93.72 75.01,83.7 75.01,83.7 C75.01,83.7 84.41,74.89 84.41,74.89 C85.76,76.25 100.72,92.62 102.15,94.04 Z" fill="#8ABFD1"/>
  <path d="M100.58,90.67 C100.63,90.72 100.68,90.78 100.73,90.83 L100.77,90.96 C100.71,90.86 100.64,90.77 100.58,90.67 Z" fill="#A5C7D3"/>
  <path d="M113.72,110.53 C111.55,110.76 111.4,113.46 111.94,115.89 C112.13,116.74 112.58,117.65 113.31,117.97 C113.98,118.26 114.06,116.4 115.51,115.36 C115.98,115.02 119.66,114.32 121.86,112.97 C122.48,112.59 122.34,111.66 121.62,111.51 C119.2,111.01 114.69,110.42 113.72,110.53 Z" fill="#8ABFD1"/>
  <path d="M15.56,7.41 C15.33,7.82 15.12,8.23 14.93,8.64 C13.99,10.62 12.96,12.81 10.94,13.66 C9.92,14.09 8.77,14.09 7.71,14.41 C5.82,14.97 4.26,16.55 3.74,18.46 C3.22,20.36 3.76,22.52 5.11,23.96 C7.19,26.18 10.55,26.42 13.57,26.76 C21.82,27.71 27.86,36.45 33.37,41.96 C37.03,45.62 40.69,49.28 44.35,52.94 C44.35,52.94 52.99,44.3 52.99,44.3 C52.99,44.3 42.97,34.28 42.37,33.68 C36.87,28.18 27.36,21.99 27.64,13.38 C27.69,11.77 28.03,10.11 27.52,8.58 C26.83,6.5 24.73,5.21 22.66,4.48 C21.58,4.1 20.41,3.82 19.29,4.06 C17.6,4.43 16.44,5.85 15.56,7.41 Z" fill="#C8DEE9"/>
  <path d="M27.42,37.33 C27.37,37.28 27.32,37.22 27.27,37.17 L27.23,37.04 C27.29,37.14 27.36,37.23 27.42,37.33 Z" fill="#A5C7D3"/>
  <path d="M7.89,22.54 C12.82,22.64 14.04,21.79 15.31,21.33 C19.39,19.87 20.48,22.58 19.34,24.74 C17.94,27.4 12.29,27.26 8.12,25.76 C7.23,25.44 4.92,24.41 4.64,23.32 C4.2,21.61 7.18,22.52 7.89,22.54 Z" fill="#8ABFD1"/>
  <path d="M52.99,44.3 C52.99,44.3 38.9,31.07 35.9,27.85 C29.83,28.46 26.54,32.29 26.03,34.21 C29.25,37.2 40.69,49.28 44.35,52.94 C44.35,52.94 52.99,44.3 52.99,44.3 Z" fill="#8ABFD1"/>
  <path d="M112.44,7.41 C112.67,7.82 112.88,8.23 113.07,8.64 C114.01,10.62 115.04,12.81 117.06,13.66 C118.08,14.09 119.23,14.09 120.29,14.41 C122.18,14.97 123.74,16.55 124.26,18.46 C124.78,20.36 124.24,22.52 122.89,23.96 C120.81,26.18 117.45,26.42 114.43,26.76 C106.18,27.71 100.14,36.45 94.63,41.96 C90.97,45.62 87.31,49.28 83.65,52.94 C83.65,52.94 75.01,44.3 75.01,44.3 C75.01,44.3 85.03,34.28 85.63,33.68 C91.13,28.18 100.64,21.99 100.36,13.38 C100.31,11.77 99.97,10.11 100.48,8.58 C101.17,6.5 103.27,5.21 105.34,4.48 C106.42,4.1 107.59,3.82 108.71,4.06 C110.4,4.43 111.56,5.85 112.44,7.41 Z" fill="#C8DEE9"/>
  <path d="M100.58,37.33 C100.63,37.28 100.68,37.22 100.73,37.17 L100.77,37.04 C100.71,37.14 100.64,37.23 100.58,37.33 Z" fill="#A5C7D3"/>
  <path d="M120.11,22.43 C115.18,22.53 113.96,21.68 112.69,21.22 C108.61,19.76 107.52,22.47 108.66,24.63 C110.06,27.29 115.71,27.15 119.88,25.65 C120.77,25.33 123.08,24.3 123.36,23.21 C123.8,21.51 120.82,22.42 120.11,22.43 Z" fill="#8ABFD1"/>
  <path d="M75.01,44.3 C75.01,44.3 90.36,29.94 93.36,26.72 C101.37,28.46 102.76,33.35 102.76,33.35 C102.76,33.35 87.32,49.27 83.66,52.93 C83.65,52.94 75.01,44.3 75.01,44.3 Z" fill="#8ABFD1"/>
  <path d="M99.71,68.48 C100.13,65.95 101.88,54.7 100.29,45.86 C99.27,40.23 96.51,35.87 92.58,32.15 C85.01,24.98 74.7,21.62 64.85,21.33 C64.8,21.32 64.74,21.32 64.69,21.32 C64.64,21.32 64.58,21.31 64.53,21.31 C64.44,21.31 64.35,21.32 64.27,21.32 C64.18,21.32 64.09,21.31 64.01,21.31 C63.96,21.31 63.9,21.32 63.85,21.32 C63.8,21.32 63.74,21.31 63.69,21.33 C53.84,21.62 43.53,24.98 35.96,32.15 C32.04,35.87 29.27,40.23 28.25,45.86 C26.65,54.7 28.41,65.95 28.83,68.48 C29.4,71.93 27.89,75.74 27.59,79.18 C27.27,82.92 29.03,85.82 32.19,87.87 C34.83,89.58 37.89,90.49 40.74,91.82 C44.13,93.4 41.05,99.1 42.3,101.98 C42.93,103.44 44.31,104.43 45.73,105.14 C47.54,106.04 49.63,106.61 51.59,106.11 C51.29,106.19 52.15,107.91 53.29,108.61 C54.32,109.25 55.61,109.9 56.8,110.16 C59.18,110.68 61.53,109.81 62.99,109.05 C63.79,108.64 64.73,108.64 65.52,109.05 C66.99,109.81 69.34,110.69 71.71,110.16 C73.5,109.77 75.09,108.71 76.23,107.32 C76.76,106.67 77.59,106.31 78.43,106.37 C80.92,106.53 84.73,105.52 86.39,101.76 C87.31,99.67 86.38,97.21 87,95.02 C88.04,91.31 91.69,90.39 94.63,88.67 C98.52,86.38 100.82,83.83 100.93,80.22 C101.08,76.38 99.22,71.44 99.71,68.48 Z" fill="#E1E7EA"/>
  <path d="M49.073,56.313 C53.986,57.629 56.795,63.077 55.347,68.481 C53.899,73.885 48.742,77.199 43.829,75.882 C38.916,74.566 36.107,69.118 37.555,63.714 C39.003,58.31 44.16,54.997 49.073,56.313 Z" fill="#424242"/>
  <path d="M90.994,63.717 C92.441,69.121 89.632,74.568 84.719,75.885 C79.806,77.201 74.65,73.888 73.202,68.484 C71.754,63.08 74.563,57.632 79.476,56.316 C84.389,54.999 89.546,58.313 90.994,63.717 Z" fill="#424242"/>
  <path d="M58.36,82.72 C58.36,79.45 61.01,71.36 64.28,71.36 C67.55,71.36 70.2,79.45 70.2,82.72 C70.2,89.36 64.28,84.84 64.28,84.84 C64.28,84.84 58.36,89.75 58.36,82.72 Z" fill="#424242"/>
  <path d="M49.91,106.3 C49.83,105.63 50,98.81 50,97.6 C50,96.74 50.69,96.05 51.55,96.05 C52.41,96.05 53.1,96.75 53.1,97.6 C53.1,98.67 52.68,106.33 52.68,106.33 C52.68,106.33 51.28,106.69 49.91,106.3 Z" fill="#8ABFD1"/>
  <path d="M62.74,109.27 C62.74,109.27 62.75,108.22 62.75,107.68 C62.75,104.32 62.75,100.96 62.75,97.6 C62.75,96.74 63.44,96.05 64.3,96.05 C65.16,96.05 65.85,96.75 65.85,97.6 C65.85,97.65 65.85,97.71 65.85,97.76 C65.85,99.53 65.85,101.29 65.85,103.06 C65.85,104.17 65.79,109.27 65.79,109.27 C63.39,108.37 62.74,109.27 62.74,109.27 Z" fill="#8ABFD1"/>
  <path d="M75.7,107.18 C75.7,107.18 75.55,98.9 75.55,97.6 C75.55,96.74 76.25,96.05 77.1,96.05 C77.96,96.05 78.65,96.75 78.65,97.6 C78.65,98.99 78.64,106.38 78.64,106.38 C78.64,106.38 77.82,106.34 77.19,106.45 C76.92,106.48 75.7,107.18 75.7,107.18 Z" fill="#8ABFD1"/>
  <path d="M64.27,105.37 C63.51,105.43 62.75,105.52 62.74,105.61 C62.51,108.24 58.69,108.41 56.74,107.99 C55.61,107.74 54.34,107.36 53.65,106.39 C53,105.49 52.71,104.35 52.72,103.25 C52.72,103.19 49.9,102.89 49.9,102.89 C49.9,102.89 49.71,104.44 47.8,104.29 C44.66,104.04 44.04,103.03 43.37,101.92 C42.53,100.52 42.23,97.42 42.23,97.42 C40.91,103 43.71,105.06 45.1,105.82 C47.7,107.24 50.98,106.49 50.98,106.49 C50.98,106.49 52.29,108.58 53.42,109.28 C54.45,109.92 55.54,110.24 56.73,110.5 C59.11,111.02 61.46,110.15 62.92,109.39 C63.34,109.17 63.8,109.08 64.25,109.09 L64.25,105.37 Z" fill="#8ABFD1"/>
  <path d="M64.27,105.37 C65.03,105.43 65.79,105.52 65.8,105.61 C66.03,108.24 69.85,108.41 71.8,107.99 C72.93,107.74 74.2,107.36 74.89,106.39 C75.54,105.49 75.83,104.35 75.82,103.25 C75.82,103.19 78.64,102.89 78.64,102.89 C78.64,102.89 78.83,104.44 80.74,104.29 C83.88,104.04 84.5,103.03 85.17,101.92 C86.01,100.52 86.81,97.42 86.81,97.42 C87.75,103.11 84.83,105.06 83.44,105.82 C80.84,107.24 77.56,106.49 77.56,106.49 C77.56,106.49 76.25,108.58 75.12,109.28 C74.09,109.92 73,110.24 71.81,110.5 C69.43,111.02 67.08,110.15 65.62,109.39 C65.2,109.17 64.74,109.08 64.29,109.09 L64.29,105.37 Z" fill="#8ABFD1"/>
</svg>
